!!!ONB: MCCC : IGR0001_02 : Extracted Monophonic Melody
!!!COM: Rossini, Gioacchino
!!!OPR: Péchés de vieillesse
!!!OMV: 2
!!!SCT: Op.72
!!!ODT: 1857///
**kern
*staff1
=1
*clefG2
*k[]
*C:
*M3/8
16.B
32c
8A
8A
=2
4A
8r
=3
8r
16r
32e-
32e
32a
32cc
32ee
32aa
=4
32ee
32ee
32aa
32ccc
32eee
16.aaa
8r
=5
16.e
32f
8d
8d
=6
4d
8r
=7
16r
32d
32f
32a
32dd
32g#
32a
32dd
32ff
32aa
32ddd
=8
32aa
32aa
32ddd
32fff
32aaa
16.dddd
8r
=9
4.r
=10
4.r
=11
16r
32e
32g#
32b
32ee
32b-
32b
32ee
32gg#
32bb
32eee
=12
32bb-
32bb
32eee
32ggg#
32bbb
16.eeee
8r
=13
4.r
=14
8ee
16a
32b
32a
8g#
=15
8ee
16a
32b
32a
8g#
=16
8ee
16a
32b
32a
8aa
=17
8.gg
16ff
8ee
=18
16dd#
32ee
32ee-
8bb
8dd
=19
16cc#
32dd
32cc#
8aa
8cc
=20
16b-
32cc
32b-
8ff
8a
=21
16g#
32a
32g#
8ee
8e
=22
16e
16f
16a
16cc
16cc
16cc
=23
16b-
16b
16ee
16gg#
16bb
16bb
=24
32eee-
32ccc#
16bb
16bbb
16bb
16bb
16bb
=25
32ee-
32cc#
16b
16ee
16e
16e
16e
=26
16e
16f
16a
16cc
16cc
16cc
=27
16b-
16b
16ee
16gg#
16bb
16bb
=28
32eee-
32ccc#
16bb
16bbb
16b
32ee-
32cc#
16b
=29
16ee
16ee
16e
16ee
16ee
16ee
=30
16gg
16ff
16dd
16b-
16r
16a
=31
16r
16g#
16e
16ee
16ee
16ee
=32
16gg
16ff
16dd
16b-
16r
16a
=33
16r
16g#
16e
16a
8a
=34
16g#
16g#
16e
16a
8a
=35
16g#
16g#
8e
8r
=36
16r
16dd
8g#
8r
=37
16r
16ff
8b
8r
=38
4.r
=39
8ee
16a
32b
32a
8g#
=40
8ee
16a
32b
32a
8g#
=41
8ee
16a
32b
32a
8aa
=42
8.gg
16ff
8ee
=43
8ff
16cc
32dd
32cc
8ee
=44
8ff
16cc
32dd
32cc
8ee-
=45
24ee
24aa
24ccc
24ee
24aa
24ccc
8eee
=46
8r
32eee
32ddd
16ccc
32ddd
32ccc
16bb
=47
32fff
32eee
16ddd
32ddd
32ccc
16bb
32bb
32aa
16gg
=48
32gg
32ff
16ee
32ee
32dd
16cc
32cc
32b
16a
=49
32a
32g
16f
32f
32e
16d
32d
32c
16B
=50
8c
32cccc
32bbb
16aaa
32aaa
32ggg
16fff
=51
32fff
32eee
16ddd
32ddd
32ccc
16bb
32bb
32aa
16gg
=52
32gg
32ff
16ee
32ee
32dd
16cc
32cc
32b
16a
=53
32a
32g
16f
32f
32e
16d
32d
32c
16B
=54
8A
24c
24B
24A
8e
=55
8A
24c
24B
24A
8e
=56
8A
24c
24B
24A
8e
=57
8A
24c
24B
24A
8e
=58
8A
8r
16r
16A
=59
8A
8r
8r
=60
16.a
32b
8g
8g
=61
4.g
=62
16.a
32b
8g
8g
=63
8g
32g
32b
32ee
32gg
8ccc
=64
24bb
24aa
24gg
8ff
8ff
=65
8ff
32ff[
32ff]
32dd
32ff
8bb
=66
24aa
24gg
24ff
8ee
8ee
=67
4ee
8r
=68
16.aa
32bb
8gg
8gg
=69
4.gg
=70
16.aa
32bb
8gg
8gg
=71
8gg
32gg[
32gg]
32ee
32gg
8ccc
=72
24ggg#
24bbb
24aaa
24eee
24ggg
24fff
24ccc#
24eee
24ddd
=73
24gg#
24bb
24aa
24ee
24gg
24ff
24cc#
24ee
24dd
=74
24cc
24g
24cc
24ee
24cc
24ee
24gg
24ff
24ee
=75
4ccc
8r
=76
16.cc
32dd
8cc
8r
=77
4.r
=78
16.cc
32dd
8cc
8r
=79
4.r
=80
4cc
8b
=81
4cc
8b
=82
4cc
8e-
=83
4g#
8b-
=84
8r
16.g
32g#
8g
=85
8r
16.f
32g
8f
=86
8r
16.e-
32f
8e-
=87
8r
16.ee-
32ff
8ee-
=88
4cc
8b
=89
4cc
8b
=90
4cc
8e-
=91
4f#
8c
=92
8r
16.g
32a
8g
=93
8r
16.g
32g#
8g
=94
8r
16.g
32g#
8g
=95
8r
16.g
32a
8g
=96
4ee
8dd#
=97
4ee
8dd#
=98
4ee
8g
=99
4cc
8dd
=100
8r
16.b
32cc
8b
=101
8r
16.a
32b
8a
=102
8r
16.g
32a
8g
=103
8r
16.gg
32aa
8gg
=104
4ee
8dd#
=105
4ee
8a
=106
48f#
48aa
12aa[
8aa]
8gg#
=107
48f#
48aa
12aa[
8aa]
8dd
=108
8f
8cc
8ee
=109
16r
16cc
8ff
8cc
=110
8r
16.b
32cc
8b
=111
8r
16.gg
32aa
8gg
=112
8r
24e
24f
24f#
24g
24a
24b
=113
8cc
24g
24a
24b-
24b
24cc
24dd
=114
8ee
24b
24cc
24dd
24ee
24ff
24ff#
=115
8gg
24ee
24ff
24gg
24aa
24bb
24ccc
=116
8bb
24aa
24gg
24ff
24ee
24dd
24cc
=117
8b
24eee
24ddd
24ccc
24bb
24aa
24gg
=118
8ff
24aaa
24ggg
24fff
24eee
24ddd
24ccc
=119
8bb
24dddd
24cccc
24bbb
24aaa
24ggg
24fff
=120
8eee
24eee
24fff
24fff#
24ggg
24aaa
24bbb
=121
8cccc
24ccc
24ddd
24eee-
24eee
24fff
24fff#
=122
8ggg
24gg
24aa
24bb
24ccc
24ddd
24eee-
=123
8eee
24ee
24ff
24gg
24aa
24bb
24ccc
=124
8bb
24eee
24ddd
24ccc
24bb
24aa
24gg
=125
8ff
24aa
24gg
24ff
24ee
24dd
24cc
=126
8b
24ee
24dd
24cc
24b
24a
24g
=127
8f
24b
24a
24g
24f
24e
24d
=128
24e
24g
24cc
24ee
24dd
24cc
24b
24a
24g
=129
24f
24b
24dd
24ff
24ee
24dd
24cc
24b
24a
=130
24g
24cc
24ee
24gg
24ff
24ee
24dd
24cc
24b
=131
24a
24cc
24ff
24aa
24gg
24ff
24ee
24dd
24cc
=132
24b
24dd
24ff
24bb
24ff
24dd
24b-
24dd
24bb-
=133
24a
24dd
24ff
24aa
24ff
24dd
24g#
24dd
24gg#
=134
24g
24dd
24ff
24gg
24ff
24dd
24g#
24dd
24gg#
=135
24a
24dd
24ff
24aa
24ff
24dd
24b-
24dd
24bb-
=136
24b
24dd
24ff
24bb
24ff
24dd
24b
24dd
24ff
=137
24b
24dd
24ff
24bb
24ff
24dd
24b
24dd
24ff
=138
24b
24ee-
24ff#
24bb
24ff#
24ee-
24b
24ee-
24ff#
=139
24b
24ee-
24ff#
24bb
24ff#
24ee-
24b
24ee-
24ff#
=140
24b
24ee
24gg#
24bb
24gg#
24ee
24b
24ee
24gg#
=141
24cc
24ee
24aa
24ccc
24aa
24ee
24cc
24ee
24aa
=142
24a
24cc
24ee-
24aa
24ee-
24cc
24a
24cc
24ee-
=143
24c
24e-
24f#
24cc
24f#
24e-
24c
24e-
24f#
=144
8r
24B
24c
24G
24e-
24e
24c
=145
24f#
24g
24e
24b
24cc
24g
24ee-
24ee
24cc
=146
24ff#
24gg
24ee
24bb
24ccc
24gg
24eee-
24eee
24ccc
=147
24fff#
24ggg
24eee
24bbb
24cccc
24ggg
24eeee-
24eeee
24cccc
=148
8gggg
8r
8cccc
=149
8dddd
8r
8bbb
=150
24cccc
24eee
24fff
24ggg
24fff
24eee
24ddd
24ccc
24bb
=151
24aa
24gg
24ff
24ee
24dd
24cc
24b
24a
24g
=152
8f#
16dd
32ee
32dd
8ddd
=153
8G
16g
32a
32g
8gg
=154
24cc
24ee
24ff
24gg
24ff
24ee
24dd
24cc
24b
=155
24a
24g
24f
24e
24d
24c
24B
24A
24G
=156
8F#
16d
32e
32d
8dd
=157
8r
16G
32A
32G
8g
=158
8c
24e
24d
24c
8g
=159
8e
24e
24d
24c
8g
=160
8e
24e
24d
24c
8g
=161
8e
24e
24d
24c
8g
=162
8e
8r
16r
16c
=163
8c
8r
8r
=164
8gg
16cc
32dd
32cc
8b
=165
8gg
16cc
32dd
32cc
8b
=166
8gg
16cc
32dd
32cc
8b-
=167
8a
16.a
32b-
8a
=168
16a
32b-
32a
8aa
16gg
32aa
32gg
=169
8ff
16ee
32ff
32ee
8dd
=170
16b-
32cc
32b-
8a
16g
32a
32g
=171
8f
8r
8r
=172
8aa
16dd
32ee
32dd
8cc#
=173
8aa
16dd
32ee
32dd
8cc#
=174
8aa
16dd
32ee
32dd
8cc
=175
8.b
32r
32cc
8b
=176
16b
32cc#
32b
8bb
16aa
32bb
32aa
=177
8gg
16ff#
32gg
32ff#
8ee
=178
16cc
32dd
32cc
8b
16a
32b
32a
=179
8g
8r
8r
=180
16ee
32ff#
32ee
8eee
16dd
32ee
32dd
=181
8cc
16b
32cc
32b
8a
=182
16dd
32ee
32dd
8ddd
16cc
32dd
32cc
=183
8b
16a
32b
32a
8g
=184
16cc
32dd
32cc
8ccc
16b
32cc
32b
=185
8a
16g
32a
32g
8f#
=186
16b
32cc#
32b
8bb
16a
32b
32a
=187
8g
16f#
32g
32f#
8e
=188
16ff
32gg
32ff
8dd
8cc
=189
8.b
32b
32cc
8b
=190
16ff
32gg
32ff
8dd
8cc
=191
8.b-
32b-
32cc
8b-
=192
4.r
=193
8.b-
32b-
32cc
8b-
=194
4.r
=195
8.b
32b
32cc#
8b
=196
4.r
=197
8.cc
32cc
32dd
8cc
=198
4.r
=199
8.cc#
32cc#
32ee-
8cc#
=200
4.r
=201
8.dd
32dd
32ee
8dd
=202
4.r
=203
8.ee-
32ee-
32ff
8ee-
=204
4.r
=205
8.ee-
32ee-
32ee
8ee-
=206
4.r
=207
4.ee-
=208
4ee-[
16ee-]
16ee
=209
8dd#
8r
8r
=210
4.r
=211
8ee
16a
32b
32a
8g#
=212
8ee
16a
32b
32a
8g#
=213
8ee
16a
32b
32a
8aa
=214
8.gg
16ff
8ee
=215
16dd#
32ee
32ee-
8bb
8dd
=216
16cc#
32dd
32cc#
8aa
8cc
=217
16b-
32cc
32b-
8ff
8a
=218
16g#
32a
32g#
8ee
8e
=219
16e
16f
16a
16cc
16cc
16cc
=220
16b-
16b
16ee
16gg#
16bb
16bb
=221
32eee-
32ccc#
16bb
16bbb
16bb
16bb
16bb
=222
32ee-
32cc#
16b
16ee
16e
16e
16e
=223
16e
16f
16a
16cc
16cc
16cc
=224
16b-
16b
16ee
16gg#
16bb
16bb
=225
32eee-
32ccc#
16bb
16bbb
16b
32ee-
32cc#
16b
=226
16ee
16ee
16e
16ee
16ee
16ee
=227
16gg
16ff
16dd
16b-
16r
16a
=228
16r
16g#
16e
16ee
16ee
16ee
=229
16gg
16ff
16dd
16b-
16r
16a
=230
16r
16g#
16e
16a
8a
=231
16g#
16g#
16cc#
16b-
8b-
=232
16a
16g#
8cc#
8r
=233
8r
16dd
16g#
8r
=234
8r
16gg#
16b
8r
=235
4.r
=236
8cc#
16f#
32g#
32f#
8f
=237
8cc#
16f#
32g#
32f#
8f
=238
8cc#
16f#
32g#
32f#
8ff#
=239
8.ee
16dd
8cc#
=240
8dd
16a
32b
32a
8cc#
=241
8dd
16a
32b
32a
8cc
=242
24cc#
24ff#
24aa
24ccc#
24fff#
24aaa
8cccc#
=243
8r
32aaa
32ggg#
16fff#
32fff#
32eee
16ddd
=244
32ddd
32ccc#
16bb
32bb
32aa
16gg#
32gg#
32ff#
16ee
=245
32ee
32dd
16cc#
32cc#
32b
16a
32a
32g#
16f#
=246
32f#
32e
16d
32d
32c#
16B
32B
32A
16G#
=247
8A
32aaa
32ggg#
16fff#
32fff#
32eee
16ddd
=248
32ddd
32ccc#
16bb
32bb
32aa
16gg#
32gg#
32ff#
16ee
=249
32ee
32dd
16cc#
32cc#
32b
16a
32a
32g#
16f#
=250
32f#
32e
16d
32d
32c#
16B
16r
16G#
=251
4.r
=252
4.r
=253
4.r
=254
4.r
=255
4.r
=256
4.r
=257
16.f#
32g#
8e
8e
=258
4.e
=259
16.f#
32g#
8e
8e
=260
8e
32e
32a
32cc#
32ee
8aa
=261
24gg#
24ff#
24ee
8dd
8dd
=262
8dd
32dd[
32dd]
32b
32dd
8gg#
=263
24ff#
24ee
24dd
8cc#
8cc#
=264
4cc#
8r
=265
16.ff#
32gg#
8ee
8ee
=266
4.ee
=267
16.ff#
32gg#
8ee
8ee
=268
8ee
32ee
32aa
32ccc#
32eee
8aaa
=269
24fff
24ggg#
24fff#
24ccc#
24eee
24ddd
24bb-
24ccc#
24bb
=270
24ff
24gg#
24ff#
24cc#
24ee
24dd
24b-
24cc#
24b
=271
24a
24e
24a
24cc#
24b
24a
24ee
24dd
24cc#
=272
4aa
8r
=273
16.aa
32bb
8aa
8r
=274
4.r
=275
16.aa
32bb
8aa
8r
=276
4.r
=277
4aa
8gg#
=278
4aa
8gg#
=279
4aa
8cc
=280
4ff
8gg
=281
8r
16.ee
32ff
8ee
=282
8r
16.dd
32ee
8dd
=283
8r
16.cc
32dd
8cc
=284
8r
16.ccc
32ddd
8ccc
=285
4aa
8gg#
=286
4aa
8gg#
=287
4aa
8cc
=288
4ee-
8a
=289
8r
16.ee
32ff#
8ee
=290
8r
16.ee
32ff
8ee
=291
8r
16.ee
32ff
8ee
=292
8r
16.ee
32ff#
8ee
=293
4cc#
8b#
=294
4cc#
8b#
=295
4cc#
8e
=296
4a
8b
=297
8r
16.g#
32a
8g#
=298
8r
16.f#
32g#
8f#
=299
8r
16.e
32f#
8e
=300
8r
16.ee
32ff#
8ee
=301
4cc#
8b#
=302
4cc#
8f#
=303
48f#
48ff#
12ff#[
8ff#]
8ee#
=304
4ff#
8b
=305
4dd
8cc#
=306
4dd
8a
=307
8r
16.g#
32a
8g#
=308
8r
16.ee
32ff#
8ee
=309
8r
24c#
24d
24e-
24e
24f#
24g#
=310
8a
24e
24f#
24g#
24a
24b
24cc
=311
8cc#
24g#
24a
24b
24cc#
24dd
24ee-
=312
8ee
24cc#
24dd
24ee
24ff#
24gg#
24aa
=313
8gg#
24ff#
24ee
24dd
24cc#
24b
24a
=314
8g#
24ccc#
24bb
24aa
24gg#
24ff#
24ee
=315
8dd
24fff#
24eee
24ddd
24ccc#
24bb
24aa
=316
8gg#
24bbb
24aaa
24ggg#
24fff#
24eee
24ddd
=317
8ccc#
24ccc#
24ddd
24eee-
24eee
24fff#
24ggg#
=318
8aaa
24aa
24bb
24ccc
24ccc#
24ddd
24eee-
=319
8eee
24ee
24ff#
24gg#
24aa
24bb
24ccc
=320
8ccc#
24cc#
24dd
24ee
24ff#
24gg#
24aa
=321
8gg#
24ccc#
24bb
24aa
24gg#
24ff#
24ee
=322
8dd
24ff#
24ee
24dd
24cc#
24b
24a
=323
8g#
24cc#
24b
24a
24g#
24f#
24e
=324
8d
24g#
24f#
24e
24d
24c#
24B
=325
24c#
24e
24a
24cc#
24b
24a
24g#
24f#
24e
=326
24d
24g#
24b
24dd
24cc#
24b
24a
24g#
24f#
=327
24e
24a
24cc#
24ee
24dd
24cc#
24b
24a
24g#
=328
24f#
24a
24dd
24ff#
24ee
24dd
24cc#
24b
24a
=329
24g#
24b
24dd
24gg#
24dd
24b
24g
24dd
24gg
=330
24f#
24b
24dd
24ff#
24dd
24b
24f
24b
24ff
=331
24e
24b
24dd
24ee
24dd
24b
24f
24b
24ff
=332
24f#
24b
24dd
24ff#
24dd
24b
24g
24dd
24gg
=333
24g#
24b
24dd
24gg#
24dd
24b
24g#
24b
24dd
=334
24g#
24b
24dd
24gg#
24dd
24b
24g#
24b
24dd
=335
24g#
24cc
24ee-
24gg#
24ee-
24cc
24g#
24cc
24ee-
=336
24g#
24cc
24ee-
24gg#
24ee-
24cc
24g#
24cc
24ee-
=337
24g#
24cc#
24ff
24gg#
24ff
24cc#
24g#
24cc#
24ff
=338
24a
24cc#
24ff#
24aa
24ff#
24cc#
24a
24cc#
24ff#
=339
24f#
24a
24cc
24ff#
24cc
24a
24f#
24a
24cc
=340
24A
24c
24e-
24a
24e-
24c
24A
24c
24e-
=341
4.r
=342
24e-
24e
24c#
24g#
24a
24e
24cc
24cc#
24a
=343
24ee-
24ee
24cc#
24gg#
24aa
24ee
24ccc
24ccc#
24aa
=344
24eee-
24eee
24ccc#
24ggg#
24aaa
24eee
24cccc
24cccc#
24aaa
=345
8eeee
8r
8cccc#
=346
8dddd
8r
8ggg#
=347
24aaa
24ccc#
24ddd
24eee
24ddd
24ccc#
24bb
24aa
24gg#
=348
24ff#
24ee
24dd
24cc#
24b
24a
24g#
24f#
24e
=349
8e-
16b
32cc#
32b
8bb
=350
8r
16e
32f#
32e
8ee
=351
24a
24cc#
24dd
24ee
24dd
24cc#
24b
24a
24g#
=352
24f#
24e
24d
24c#
24B
24A
24G#
24F#
24E
=353
8E-
16B
32c#
32B
8b
=354
8r
16E
32F#
32D
8e
=355
24AA
24E
24A
24c#
24B
24A
24E
24e
24E
=356
24A
24e
24a
24cc#
24b
24a
24e
24ee
24e
=357
24a
24ee
24aa
24ccc#
24bb
24aa
24ee
24eee
24ee
=358
24eee
24aaa
24cccc#
24bbb
24aaa
24eee
24eeee
24eee
24aaa
=359
24eee
24cccc#
24aaa
24eeee
24cccc#
24aaa
24aaa
24eee
24ccc#
=360
24aa
24ee
24ccc#
24aa
24eee
24ccc#
24aa
24ee
24cc#
=361
24a
24e
24cc#
24a
24ee
24cc#
24a
24e
24c#
=362
24A
24E
24c#
24A
24e
24c#
24A
24E
24C#
=363
4.r
=364
4.r
=365
4.r
=366
4.r
=367
4.r
=368
16.a
32b
8a
8a
=369
8a
8r
16r
16cccc#
=370
8cccc#
8r
8r
=371
4.r
=372
4.r
=373
4.r
=374
4.r
==
*-
